X: 10514
T: Doon Da Rooth
R: jig
M: 6/8
K: Gmajor
M:2/8
G2G BdB gdB AGB- B2d edB A2B|G2G BdB gdB AGB- B2A BGG G2G|
G2G BdB gdB AGB- B2d edB A2B|G2G BdB gdB AGB- B2A BGG GBd||
g2g dgg edB AGB- B2d eee e2f|g2g dgg edB AGB- B2A BGG GBd|
g2g dgg edB AGB- B2d eee e2f|g2g dgg edB AGB- B2A BGG GED||

